X:4
T: Country Waltz
C: Traditional
M: 3/4
R: Waltz
L:1/8
N:Bonanzaville Jam
K:D
|:"D"D2F2A2|"A"A3G FE|"D"D2F2A2|f2d2ef|"A"g2e2ag|
"D"f2d2cd|1"E"e>fe>dc>B|"A"A>BA>GF>E:|2"E"e2B2"A"c2|"D"d4A2||
|:f3e dB|A3G FE|D2F2Ad|B2A2F2|"A"g3f ed|
c3d cB|1A2c2e2|a2g2A2:|2A2B2c2|"D"d4z2|]
